X:1
T:title
M:4/4
Q:120
L:1/8
R:Reel
K:C
c'2 _e3 _ef' _d |  _G4 ^d'3 _C |  ^c3 ^B2f'2C |  _b'd'2 _g'2c2 _c |  ^g4 _d3 ^D |  _b ^c'3 ^A3e' | f'3 _g3 ^g2 |  _e3 ^b' _D3e | 